X: 60
T:Rising Step (#170), The
M:6/8
L:1/8
S:Capt. F. O'Neill
K:G
B|DFD G2 B|AGE G2 B|DFD G2 B|AGE E2 G|
DFD G2 B|AGE G2 A|Bdc "tr"B2 A|GED D2:|
|:B|dcd "tr"BAG|BdG BAG|dcd BAG|BAA A2 B/2c/2|
1dcd BAG|BdG BAG|ABc "tr"B2 A|GED D2:|
2dcd efg|afd edB|cdc "tr"B2 A|GED D2||

